svg/fluentui-system-icons/ic_fluent_box_multiple_arrow_right_24_filled.svg

<svg width="24" height="24" viewBox="0 0 24 24" fill="none" xmlns="http://www.w3.org/2000/svg">
<path d="M16.2999 2.33017C15.461 2.02015 14.539 2.02015 13.7001 2.33017L9.39337 3.92175C8.70625 4.17569 8.25 4.83071 8.25 5.56325V8.35645C9.05071 8.22843 9.87632 8.30674 10.6466 8.59139L14.9533 10.183C15.4674 10.373 15.8993 10.7059 16.2107 11.1269C16.6275 11.043 17.0586 10.999 17.5 10.999C19.1249 10.999 20.6105 11.5952 21.75 12.5808V5.56325C21.75 4.83071 21.2937 4.17569 20.6066 3.92175L16.2999 2.33017ZM11.7692 7.20808C11.3777 7.07275 11.1701 6.64569 11.3054 6.25421C11.4407 5.86272 11.8678 5.65506 12.2593 5.79038L14.9178 6.70934C14.9708 6.72765 15.0284 6.72763 15.0813 6.70928L17.7318 5.79088C18.1232 5.65526 18.5504 5.8626 18.686 6.25398C18.8216 6.64536 18.6143 7.07258 18.2229 7.2082L15.5725 8.1266C15.2017 8.25506 14.7986 8.25521 14.4278 8.12703L11.7692 7.20808ZM14.6066 11.121C14.8077 11.1953 14.989 11.3039 15.1449 11.4388C14.0902 11.849 13.169 12.5266 12.4647 13.3883C12.269 13.2213 11.9924 13.1595 11.7318 13.2499L8.99959 14.1966L6.25925 13.2494C5.86776 13.114 5.4407 13.3217 5.30538 13.7132C5.17006 14.1047 5.37772 14.5317 5.76921 14.6671L8.24989 15.5245V18.2234C8.24989 18.6376 8.58567 18.9734 8.99989 18.9734C9.4141 18.9734 9.74989 18.6376 9.74989 18.2234V15.5241L11.5385 14.9043C11.1921 15.6991 11 16.5766 11 17.499C11 18.7981 11.3811 20.0081 12.0375 21.0234L10.2999 21.6656C9.46103 21.9756 8.53897 21.9756 7.70008 21.6656L3.39337 20.074C2.70625 19.8201 2.25 19.165 2.25 18.4325V12.7625C2.25 12.0299 2.70625 11.3749 3.39337 11.121L7.70008 9.52939C8.53897 9.21937 9.46103 9.21937 10.2999 9.52939L14.6066 11.121ZM23 17.499C23 20.5366 20.5376 22.999 17.5 22.999C14.4624 22.999 12 20.5366 12 17.499C12 14.4615 14.4624 11.999 17.5 11.999C20.5376 11.999 23 14.4615 23 17.499ZM14.5 16.999C14.2239 16.999 14 17.2229 14 17.499C14 17.7752 14.2239 17.999 14.5 17.999L19.2929 17.999L17.6464 19.6455C17.4512 19.8407 17.4512 20.1573 17.6464 20.3526C17.8417 20.5478 18.1583 20.5478 18.3536 20.3526L20.8536 17.8526C21.0488 17.6573 21.0488 17.3407 20.8536 17.1455L18.3536 14.6455C18.1583 14.4502 17.8417 14.4502 17.6464 14.6455C17.4512 14.8407 17.4512 15.1573 17.6464 15.3526L19.2929 16.999L14.5 16.999Z" fill="#212121"/>
</svg>

<svg xmlns="http://www.w3.org/2000/svg" width="24" height="24"><path d="M16.3 2.33a3.75 3.75 0 0 0-2.6 0L9.393 3.922A1.75 1.75 0 0 0 8.25 5.563v2.793a4.75 4.75 0 0 1 2.397.235l4.306 1.592c.514.19.946.523 1.258.944a6.528 6.528 0 0 1 1.289-.128c1.625 0 3.11.596 4.25 1.582V5.563a1.75 1.75 0 0 0-1.143-1.641L16.3 2.33Zm-4.53 4.878a.75.75 0 1 1 .49-1.418l2.658.92a.25.25 0 0 0 .163 0l2.65-.92a.75.75 0 1 1 .492 1.418l-2.65.919a1.75 1.75 0 0 1-1.145 0l-2.659-.919Zm2.837 3.913c.2.074.382.183.538.318a6.516 6.516 0 0 0-2.68 1.95.75.75 0 0 0-.733-.14L9 14.198l-2.74-.948a.75.75 0 1 0-.49 1.418l2.48.857v2.7a.75.75 0 0 0 1.5 0v-2.7l1.789-.62A6.478 6.478 0 0 0 11 17.5c0 1.3.381 2.51 1.037 3.524l-1.737.643a3.75 3.75 0 0 1-2.6 0l-4.307-1.592a1.75 1.75 0 0 1-1.143-1.642v-5.67a1.75 1.75 0 0 1 1.143-1.641L7.7 9.529a3.75 3.75 0 0 1 2.6 0l4.307 1.592ZM23 17.499a5.5 5.5 0 1 1-11 0 5.5 5.5 0 0 1 11 0Zm-8.5-.5a.5.5 0 0 0 0 1h4.793l-1.647 1.646a.5.5 0 0 0 .708.708l2.5-2.5a.5.5 0 0 0 0-.708l-2.5-2.5a.5.5 0 0 0-.708.708l1.647 1.646H14.5Z"/></svg>
